apps/scalable/dolphin.svg

<svg xmlns="http://www.w3.org/2000/svg" style="isolation:isolate" width="256" height="256"><defs><filter id="a" width="270.648" height="254.338" x="-7.32" y="2.95" filterUnits="userSpaceOnUse"><feGaussianBlur xmlns="http://www.w3.org/2000/svg" in="SourceGraphic" stdDeviation="4.294"/><feOffset xmlns="http://www.w3.org/2000/svg" dy="4" result="pf_100_offsetBlur"/><feFlood xmlns="http://www.w3.org/2000/svg" flood-opacity=".4"/><feComposite xmlns="http://www.w3.org/2000/svg" in2="pf_100_offsetBlur" operator="in" result="pf_100_dropShadow"/><feBlend xmlns="http://www.w3.org/2000/svg" in="SourceGraphic" in2="pf_100_dropShadow"/></filter></defs><g filter="url(#a)"><linearGradient id="b" x1=".306" x2=".729" y1="-.14" y2="1.057" gradientTransform="matrix(244.648 0 0 228.338 5.676 11.947)" gradientUnits="userSpaceOnUse"><stop offset="1.739%" stop-color="#58c0f4"/><stop offset="100%" stop-color="#80cbfa"/></linearGradient><path fill="url(#b)" d="M165.685 11.947c74.055 0 84.639 10.557 84.639 84.544v59.251c0 73.986-10.584 84.543-84.639 84.543h-75.37c-74.055 0-84.639-10.557-84.639-84.543V96.491c0-73.987 10.584-84.544 84.639-84.544h75.37z"/></g><path fill="#F7F7F7" d="M183.349 12.213c58.127 2.008 66.975 16.628 66.975 84.278v59.251c0 73.986-10.584 84.543-84.639 84.543h-75.37c-61.096 0-78.991-7.185-83.383-51.245 4.973-6.112 176.887-173.772 176.417-176.827z" opacity=".1"/><g opacity=".4"><linearGradient id="c" x1=".517" x2=".517" y2="1"><stop offset="0%" stop-color="#fff"/><stop offset="12.5%" stop-opacity=".098" stop-color="#fff"/><stop offset="92.5%" stop-opacity=".098"/><stop offset="100%" stop-opacity=".498"/></linearGradient><path fill="none" stroke="url(#c)" stroke-linecap="round" stroke-linejoin="round" stroke-width="4.077" d="M165.685 11.947c74.055 0 84.639 10.557 84.639 84.544v59.251c0 73.986-10.584 84.543-84.639 84.543h-75.37c-74.055 0-84.639-10.557-84.639-84.543V96.491c0-73.987 10.584-84.544 84.639-84.544h75.37z" vector-effect="non-scaling-stroke"/></g><path fill="#D5DEE3" d="M91.697 61.745c-11.35.13-19.655-.257-26.446 3.473-3.395 1.866-6.09 5.008-7.576 8.948-1.485 3.941-2.008 8.62-2.008 14.528v37.728H200v-23.356c0-5.907-.523-10.587-2.009-14.527-.184-.49-.432-.934-.669-1.386-.09-.166-.161-.342-.247-.509-1.558-3.043-3.838-5.52-6.66-7.07-6.791-3.731-15.096-3.326-26.446-3.457h-36.435l-14.627-14.372h-21.21z"/><clipPath id="d"><path fill="#FFF" d="M91.697 61.745c-11.35.13-19.655-.257-26.446 3.474-3.395 1.865-6.09 5.007-7.576 8.947-1.485 3.941-2.008 8.62-2.008 14.528v37.728H200v-23.356c0-5.907-.523-10.587-2.009-14.527-.184-.49-.432-.934-.669-1.386-.09-.166-.161-.342-.247-.509-1.558-3.043-3.838-5.52-6.66-7.07-6.791-3.731-15.096-3.326-26.445-3.457h-36.436l-14.627-14.372h-21.21z"/></clipPath><g clip-path="url(#d)"><defs><filter id="e" width="151.041" height="121.69" x="52.31" y="72.76" filterUnits="userSpaceOnUse"><feGaussianBlur xmlns="http://www.w3.org/2000/svg" stdDeviation="1.44"/></filter></defs><path d="M163.97 76.117c11.349.13 19.654-.257 26.445 3.474 3.396 1.866 6.091 5.008 7.576 8.948 1.486 3.94 2.009 8.62 2.009 14.527v61.085c0 5.907-.523 10.587-2.009 14.527-1.485 3.94-4.18 7.1-7.576 8.965-6.791 3.731-15.096 3.326-26.445 3.457H91.695c-11.35-.131-19.655.274-26.446-3.457-3.396-1.865-6.091-5.025-7.576-8.965-1.483-3.94-2.006-8.62-2.006-14.527v-46.712c0-5.907.523-10.587 2.008-14.527.185-.49.433-.934.67-1.386.09-.166.16-.342.246-.509 1.558-3.043 3.838-5.52 6.66-7.071 6.791-3.731 15.096-3.325 26.446-3.456H113.7l14.627-14.373h35.643z" opacity=".2" filter="url(#e)"/></g><path fill="#F0F8FD" d="M163.97 76.117c11.349.13 19.654-.257 26.445 3.474 3.396 1.866 6.091 5.008 7.576 8.948 1.486 3.94 2.009 8.62 2.009 14.527v61.085c0 5.907-.523 10.587-2.009 14.527-1.485 3.94-4.18 7.1-7.576 8.965-6.791 3.731-15.096 3.326-26.445 3.457H91.695c-11.35-.131-19.655.274-26.446-3.457-3.396-1.865-6.091-5.025-7.576-8.965-1.483-3.94-2.006-8.62-2.006-14.527v-46.712c0-5.907.523-10.587 2.008-14.527.185-.49.432-.934.67-1.386.09-.166.16-.342.246-.509 1.558-3.043 3.838-5.52 6.66-7.071 6.791-3.731 15.096-3.325 26.446-3.456H113.699l14.627-14.373h35.644z"/><path fill="#FFF" d="M91.697 61.745c-11.35.13-19.655-.257-26.446 3.473-3.395 1.866-6.09 5.008-7.576 8.948-1.485 3.941-2.008 8.62-2.008 14.528v1.796c0-5.907.523-10.587 2.008-14.527 1.486-3.94 4.181-7.082 7.576-8.948 6.791-3.731 15.096-3.344 26.446-3.474h21.209l14.109 13.864 1.311-1.288h-.793l-14.627-14.372H91.697z" opacity=".4"/><path fill="#FFF" d="M128.327 76.117L113.7 90.49H91.697c-11.35.131-19.654-.275-26.446 3.457-2.821 1.55-5.102 4.027-6.659 7.07-.086.167-.157.343-.247.509-.238.452-.485.896-.67 1.386-1.485 3.94-2.008 8.62-2.008 14.527v1.797c0-5.907.523-10.587 2.008-14.527.185-.49.432-.935.67-1.386.09-.166.161-.342.247-.509 1.557-3.043 3.838-5.521 6.659-7.071 6.792-3.731 15.096-3.326 26.446-3.456H113.7l14.627-14.373h35.642c11.35.13 19.655-.257 26.446 3.474 3.395 1.865 6.091 5.008 7.576 8.948 1.485 3.94 2.008 8.62 2.008 14.527v-1.797c0-5.907-.523-10.587-2.008-14.527-1.485-3.94-4.181-7.082-7.576-8.948-6.791-3.731-15.096-3.343-26.446-3.474h-35.642z"/></svg>

<svg xmlns="http://www.w3.org/2000/svg" style="isolation:isolate" width="256" height="256" viewBox="0 0 256 256">
 <defs>
  <filter id="1iMwAJb2fgOR5PwAU0YVxy5r2dl8utRB" width="270.648" height="254.338" x="-7.32" y="2.95" filterUnits="userSpaceOnUse">
   <feGaussianBlur xmlns="http://www.w3.org/2000/svg" in="SourceGraphic" stdDeviation="4.294"/>
   <feOffset xmlns="http://www.w3.org/2000/svg" dx="0" dy="4" result="pf_100_offsetBlur"/>
   <feFlood xmlns="http://www.w3.org/2000/svg" flood-opacity=".4"/>
   <feComposite xmlns="http://www.w3.org/2000/svg" in2="pf_100_offsetBlur" operator="in" result="pf_100_dropShadow"/>
   <feBlend xmlns="http://www.w3.org/2000/svg" in="SourceGraphic" in2="pf_100_dropShadow" mode="normal"/>
  </filter>
 </defs>
 <g filter="url(#1iMwAJb2fgOR5PwAU0YVxy5r2dl8utRB)">
  <linearGradient id="_lgradient_134" x1=".306" x2=".729" y1="-.14" y2="1.057" gradientTransform="matrix(244.648,0,0,228.338,5.676,11.947)" gradientUnits="userSpaceOnUse">
   <stop offset="1.739%" style="stop-color:rgb(88,192,244)"/>
   <stop offset="100%" style="stop-color:rgb(128,203,250)"/>
  </linearGradient>
  <path fill="url(#_lgradient_134)" d="M 165.685 11.947 C 239.74 11.947 250.324 22.504 250.324 96.491 L 250.324 155.742 C 250.324 229.728 239.74 240.285 165.685 240.285 L 90.315 240.285 C 16.26 240.285 5.676 229.728 5.676 155.742 L 5.676 96.491 C 5.676 22.504 16.26 11.947 90.315 11.947 L 165.685 11.947 Z"/>
 </g>
 <g opacity=".1">
  <path fill="#F7F7F7" d="M 183.349 12.213 C 241.476 14.221 250.324 28.841 250.324 96.491 L 250.324 155.742 C 250.324 229.728 239.74 240.285 165.685 240.285 L 90.315 240.285 C 29.219 240.285 11.324 233.1 6.932 189.04 C 11.905 182.928 183.819 15.268 183.349 12.213 Z"/>
 </g>
 <g opacity=".4">
  <linearGradient id="_lgradient_135" x1=".517" x2=".517" y1="0" y2="1">
   <stop offset="0%" style="stop-color:rgb(255,255,255)"/>
   <stop offset="12.5%" stop-opacity=".098" style="stop-color:rgb(255,255,255)"/>
   <stop offset="92.5%" stop-opacity=".098" style="stop-color:rgb(0,0,0)"/>
   <stop offset="100%" stop-opacity=".498" style="stop-color:rgb(0,0,0)"/>
  </linearGradient>
  <path fill="none" stroke="url(#_lgradient_135)" stroke-linecap="round" stroke-linejoin="round" stroke-width="4.077" d="M 165.685 11.947 C 239.74 11.947 250.324 22.504 250.324 96.491 L 250.324 155.742 C 250.324 229.728 239.74 240.285 165.685 240.285 L 90.315 240.285 C 16.26 240.285 5.676 229.728 5.676 155.742 L 5.676 96.491 C 5.676 22.504 16.26 11.947 90.315 11.947 L 165.685 11.947 Z" vector-effect="non-scaling-stroke"/>
 </g>
 <g>
  <path fill="#D5DEE3" d="M 91.697 61.745 C 80.347 61.875 72.042 61.488 65.251 65.218 C 61.856 67.084 59.161 70.226 57.675 74.166 C 56.19 78.107 55.667 82.786 55.667 88.694 L 55.667 126.422 L 200 126.422 L 200 103.066 C 200 97.159 199.477 92.479 197.991 88.539 C 197.807 88.049 197.559 87.605 197.322 87.153 C 197.232 86.987 197.161 86.811 197.075 86.644 C 195.517 83.601 193.237 81.124 190.415 79.574 C 183.624 75.843 175.319 76.248 163.969 76.117 L 163.917 76.117 L 127.534 76.117 L 112.907 61.745 L 91.715 61.745 L 91.697 61.745 Z"/>
  <clipPath id="_clipPath_aNUltBJeJxGIJahslGicffbbGFNRlavb">
   <path fill="#FFFFFF" d="M 91.697 61.745 C 80.347 61.875 72.042 61.488 65.251 65.219 C 61.856 67.084 59.161 70.226 57.675 74.166 C 56.19 78.107 55.667 82.786 55.667 88.694 L 55.667 126.422 L 200 126.422 L 200 103.066 C 200 97.159 199.477 92.479 197.991 88.539 C 197.807 88.049 197.559 87.605 197.322 87.153 C 197.232 86.987 197.161 86.811 197.075 86.644 C 195.517 83.601 193.237 81.124 190.415 79.574 C 183.624 75.843 175.319 76.248 163.97 76.117 L 163.917 76.117 L 127.534 76.117 L 112.907 61.745 L 91.715 61.745 L 91.697 61.745 Z"/>
  </clipPath>
  <g clip-path="url(#_clipPath_aNUltBJeJxGIJahslGicffbbGFNRlavb)">
   <defs>
    <filter id="tsdb2DGhQuCvsB7UgJmgx7Dpw4ymE1N5" width="151.041" height="121.69" x="52.31" y="72.76" filterUnits="userSpaceOnUse">
     <feGaussianBlur xmlns="http://www.w3.org/2000/svg" stdDeviation="1.44"/>
    </filter>
   </defs>
   <g opacity=".2" filter="url(#tsdb2DGhQuCvsB7UgJmgx7Dpw4ymE1N5)">
    <path d="M 163.97 76.117 C 175.319 76.247 183.624 75.86 190.415 79.591 C 193.811 81.457 196.506 84.599 197.991 88.539 C 199.477 92.479 200 97.159 200 103.066 L 200 164.151 C 200 170.058 199.477 174.738 197.991 178.678 C 196.506 182.618 193.811 185.778 190.415 187.643 C 183.624 191.374 175.319 190.969 163.97 191.1 L 163.915 191.1 L 91.749 191.1 L 91.695 191.1 C 80.345 190.969 72.04 191.374 65.249 187.643 C 61.853 185.778 59.158 182.618 57.673 178.678 C 56.19 174.738 55.667 170.058 55.667 164.151 L 55.667 158.761 L 55.667 117.439 C 55.667 111.532 56.19 106.852 57.675 102.912 C 57.86 102.422 58.108 101.978 58.345 101.526 C 58.435 101.36 58.505 101.184 58.591 101.017 C 60.149 97.974 62.429 95.497 65.251 93.946 C 72.042 90.215 80.347 90.621 91.697 90.49 L 91.75 90.49 L 113.7 90.49 L 128.327 76.117 L 163.952 76.117 L 163.97 76.117 Z"/>
   </g>
  </g>
  <path fill="#F0F8FD" d="M 163.97 76.117 C 175.319 76.247 183.624 75.86 190.415 79.591 C 193.811 81.457 196.506 84.599 197.991 88.539 C 199.477 92.479 200 97.159 200 103.066 L 200 164.151 C 200 170.058 199.477 174.738 197.991 178.678 C 196.506 182.618 193.811 185.778 190.415 187.643 C 183.624 191.374 175.319 190.969 163.97 191.1 L 163.915 191.1 L 91.749 191.1 L 91.695 191.1 C 80.345 190.969 72.04 191.374 65.249 187.643 C 61.853 185.778 59.158 182.618 57.673 178.678 C 56.19 174.738 55.667 170.058 55.667 164.151 L 55.667 158.761 L 55.667 117.439 C 55.667 111.532 56.19 106.852 57.675 102.912 C 57.86 102.422 58.107 101.978 58.345 101.526 C 58.435 101.36 58.505 101.184 58.591 101.017 C 60.149 97.974 62.429 95.497 65.251 93.946 C 72.042 90.215 80.347 90.621 91.697 90.49 L 91.75 90.49 L 113.699 90.49 L 128.326 76.117 L 163.952 76.117 L 163.97 76.117 Z"/>
  <g opacity=".4">
   <path fill="#FFFFFF" d="M 91.697 61.745 C 80.347 61.875 72.042 61.488 65.251 65.218 C 61.856 67.084 59.161 70.226 57.675 74.166 C 56.19 78.107 55.667 82.786 55.667 88.694 L 55.667 90.49 C 55.667 84.583 56.19 79.903 57.675 75.963 C 59.161 72.023 61.856 68.881 65.251 67.015 C 72.042 63.284 80.347 63.671 91.697 63.541 L 91.714 63.541 L 112.906 63.541 L 127.015 77.405 L 128.326 76.117 L 127.533 76.117 L 112.906 61.745 L 91.714 61.745 L 91.697 61.745 Z"/>
  </g>
  <path fill="#FFFFFF" d="M 128.327 76.117 L 113.7 90.49 L 91.75 90.49 L 91.697 90.49 C 80.347 90.621 72.043 90.215 65.251 93.947 C 62.43 95.497 60.149 97.974 58.592 101.017 C 58.506 101.184 58.435 101.36 58.345 101.526 C 58.107 101.978 57.86 102.422 57.675 102.912 C 56.19 106.852 55.667 111.532 55.667 117.439 L 55.667 119.236 C 55.667 113.329 56.19 108.649 57.675 104.709 C 57.86 104.219 58.107 103.774 58.345 103.323 C 58.435 103.157 58.506 102.981 58.592 102.814 C 60.149 99.771 62.43 97.293 65.251 95.743 C 72.043 92.012 80.347 92.417 91.697 92.287 L 91.75 92.287 L 113.7 92.287 L 128.327 77.914 L 163.952 77.914 L 163.969 77.914 C 175.319 78.044 183.624 77.657 190.415 81.388 C 193.81 83.253 196.506 86.396 197.991 90.336 C 199.476 94.276 199.999 98.956 199.999 104.863 L 199.999 103.066 C 199.999 97.159 199.476 92.479 197.991 88.539 C 196.506 84.599 193.81 81.457 190.415 79.591 C 183.624 75.86 175.319 76.248 163.969 76.117 L 163.952 76.117 L 128.327 76.117 Z"/>
 </g>
</svg>
